modules/micon/icons/digg.svg

<svg width="1792" height="1792" viewBox="0 0 1792 1792" xmlns="http://www.w3.org/2000/svg"><path d="M200 282h204v983h-532v-697h328v-286zm0 819v-369h-123v369h123zm286-533v697h205v-697h-205zm0-286v204h205v-204h-205zm287 286h533v942h-533v-163h328v-82h-328v-697zm328 533v-369h-123v369h123zm287-533h532v942h-532v-163h327v-82h-327v-697zm327 533v-369h-123v369h123z"/></svg>

<svg width="1792" height="1792" xmlns="http://www.w3.org/2000/svg"><path d="M200 282h204v983h-532V568h328V282zm0 819V732H77v369h123zm286-533v697h205V568H486zm0-286v204h205V282H486zm287 286h533v942H773v-163h328v-82H773V568zm328 533V732H978v369h123zm287-533h532v942h-532v-163h327v-82h-327V568zm327 533V732h-123v369h123z"/></svg>
